X:352
T:Cornish Squire,The. (p)1696.PLFD.352
M:3/2
L:1/8
Q:1/2=100
S:Playford, Dancing Master,9th Ed,1st Supp.,1696.
O:England
H:1696.
Z:Chris Partington
K:F
A2F4AB cFcF|c2F4ABc2A2|B2G4Bc dGdG|d2G4Bcd2B2:|
|:F2f3e/f/ g/f/e/d/c3B/A/|G2g3f/g/ a/g/f/e/d3A/G/|
F2f3e/f/ g/f/e/d/c2f2|e/f/g/e/c2f2e/f/g/e/c2f2|f4e4d4:|
